X: 35896
T: Sandy MacInnis
R: reel
M: 4/4
K: Amajor
|:cB|"A"AECE Acec|"D"defa "A"ecAc|"D"dcdf "A"efga|ecAc "Bm"B2 "A"cB|
"A"AECE Acec|"D"defa "A"ecAc|"D"dcdf "A"efga|ec"Bm"dB "A"A2:|
fg|"A"aecA EAce|"D"defa "A"ecAc|"D"dcdf "A"efga|ecAc "Bm"B2 "A"fg|
"A"aecA EAce|"D"defa "A"ecAc|"D"dcdf "A"efga|ec"Bm"dB "A"A2 fg|
"A"aecA EAce|"D"defa "A"ecAc|"D"dcdf "A"efga|ecAc "Bm"B2 "A"cB|
"A"AECE Acec|"D"defa "A"ecAc|"D"dcdf "A"efga|ec"Bm"dB "A"A2||

